!!!OTL: MAEGDLEIN FREI DU NICHT SO FRUEH
!!!ARE: Europa, Mitteleuropa, Deutschland, Westfalen
!!!SCT: E0835A
!!!YEM: Copyright 1995, estate of Helmut Schaffrath.
**kern
*ICvox
*Ivox
*M4/4
*k[f#c#]
*D:
{8d
8f#
=1
4.a
8f#
4g
4g
=2
2f#
4r}
{8f#
8g
=3
4.a
8b
4b
4g
=4
2f#
4r}
{8d
8e
=5
4f#
4f#
4f#
8e
8f#
=6
4g
4e
4e}
{4d
=7
4f#
4f#
4a
8g
8f#
=8
4g
4e
4e
8r}
{8A
=9
8d
8e
8f#
8g
4a
8a
8b
=10
8a
8g
8f#
8e
4d
8r}
{8e
=11
8f#
8e
8f#
8g
4a
8g
8f#
=12
4e
4e
4d}
==
!!!AGN: Hochzeits -, Ehestands - Lied
!!!ONB: ESAC (Essen Associative Code) Database: ERK2
!!!AMT: simple quadruple
!!!AIN: vox
!!!EED: Helmut Schaffrath
!!!EEV: 1.0
*-
